usr/share/icons/biglinux-icons-material/scalable/apps/webstorm.svg

<svg xmlns="http://www.w3.org/2000/svg" xml:space="preserve" width="24" height="24" viewBox="0 0 6.35 6.35"><defs><radialGradient id="a" cx="0" cy="0" r="1" fx="0" fy="0" gradientTransform="matrix(0 16.5 -16.5 0 9 .75)" gradientUnits="userSpaceOnUse" spreadMethod="pad"><stop offset="0" style="stop-color:#fff;stop-opacity:1"/><stop offset="1" style="stop-color:#63c8e3;stop-opacity:1"/></radialGradient></defs><path d="M7.195.836c.09 0 .176-.012.258-.035a23.86 23.86 0 0 1 3.231.008 10.26 10.26 0 0 1 2.836.636c1.519.625 2.558 1.711 3.121 3.254.316.93.507 1.887.566 2.867a21.227 21.227 0 0 1-.086 3.696 8.976 8.976 0 0 1-.672 2.488c-.637 1.383-1.672 2.336-3.101 2.859a11.693 11.693 0 0 1-3.575.618 15.998 15.998 0 0 1-4.089-.309c-2.481-.551-4.016-2.066-4.594-4.543a14.244 14.244 0 0 1-.336-3.383c-.027-1.211.101-2.41.387-3.59.609-2.312 2.078-3.746 4.406-4.3A10.27 10.27 0 0 1 7.195.836Z" style="fill:url(#a);fill-rule:evenodd;stroke:none;stroke-width:.99975004;stroke-dasharray:none" transform="translate(.022 -.08) scale(.35277)"/><g transform="translate(-1.037 -1.14) scale(.50002)"><rect width="7.937" height="7.937" x="4.498" y="4.498" fill="#303030" rx="1.323" ry="1.323" style="paint-order:markers stroke fill"/><path fill="#f9f9f9" d="M9.709 7.773c.299.243.558.383.932.383.299 0 .62-.14.62-.345v-.02c0-.186-.21-.322-.77-.471-.673-.169-1.107-.553-1.107-.986v-.019c0-.617.584-.955 1.257-.955.486 0 .782.162 1.136.376l-.346.471c-.3-.205-.51-.225-.79-.225s-.622.137-.622.305v.058c0 .224.216.329.777.478.673.187 1.074.401 1.074.913v.019c0 .578-.52 1.022-1.23 1.022-.504-.019-.944-.21-1.337-.564M8.777 5.36l-.621 2.175-.621-2.175h-.621l-.622 2.175-.62-2.175H5.05l.932 3.417h.62l.622-2.174.621 2.174h.621l.932-3.417M5.05 10.951h3.106v.621H5.05Z"/></g></svg>

<?xml version="1.0" encoding="UTF-8" standalone="no"?>
<svg
   width="24"
   height="24"
   viewBox="0 0 6.349875 6.349875"
   version="1.1"
   id="svg190"
   sodipodi:docname="webstorm.svg"
   xml:space="preserve"
   inkscape:version="1.2.2 (b0a8486541, 2022-12-01)"
   inkscape:export-filename="qt-creator.pdf"
   inkscape:export-xdpi="96"
   inkscape:export-ydpi="96"
   xmlns:inkscape="http://www.inkscape.org/namespaces/inkscape"
   xmlns:sodipodi="http://sodipodi.sourceforge.net/DTD/sodipodi-0.dtd"
   xmlns="http://www.w3.org/2000/svg"
   xmlns:svg="http://www.w3.org/2000/svg"><defs
     id="defs194"><rect
       x="5.3268056"
       y="2.0367198"
       width="12.69033"
       height="15.980416"
       id="rect6368" /><linearGradient
       id="paint0_linear_3_286"
       x1="12"
       y1="1"
       x2="12"
       y2="12"
       gradientUnits="userSpaceOnUse"><stop
         stop-color="#EEA5FF"
         id="stop266" /><stop
         offset="1"
         stop-color="#A159B2"
         id="stop268" /></linearGradient><linearGradient
       x1="12"
       y1="1"
       x2="12"
       y2="23"
       gradientUnits="userSpaceOnUse"
       gradientTransform="matrix(0.75,0,0,0.75,-7.98374e-6,-2.49454e-5)"
       spreadMethod="pad"
       id="linearGradient38255-1"><stop
         style="stop-opacity:1;stop-color:#4a74d2"
         offset="0"
         id="stop38251-9" /><stop
         style="stop-opacity:1;stop-color:#375295"
         offset="1"
         id="stop38253-4" /></linearGradient><linearGradient
       id="paint0_linear_18_187"
       x1="12"
       y1="1"
       x2="12"
       y2="23"
       gradientUnits="userSpaceOnUse"
       gradientTransform="matrix(0.26457812,0,0,0.26457812,-2.8164292e-6,9.3778578e-6)"><stop
         stop-color="#33BEF0"
         id="stop43245"
         offset="0"
         style="stop-color:#ff5f5f;stop-opacity:1;" /><stop
         offset="1"
         stop-color="#0A85D9"
         id="stop43247"
         style="stop-color:#e82e34;stop-opacity:1;" /></linearGradient><linearGradient
       x1="12"
       y1="1"
       x2="12"
       y2="23"
       gradientUnits="userSpaceOnUse"
       gradientTransform="matrix(0.75,0,0,0.75,-7.98374e-6,2.65834e-5)"
       spreadMethod="pad"
       id="linearGradient44915"><stop
         style="stop-color:#31d931;stop-opacity:1;"
         offset="0"
         id="stop44911" /><stop
         style="stop-color:#d4f3d4;stop-opacity:1;"
         offset="1"
         id="stop44913" /></linearGradient><linearGradient
       id="paint0_linear_3_286-3"
       x1="12"
       y1="1"
       x2="12"
       y2="12"
       gradientUnits="userSpaceOnUse"><stop
         stop-color="#EEA5FF"
         id="stop266-6" /><stop
         offset="1"
         stop-color="#A159B2"
         id="stop268-7" /></linearGradient><radialGradient
       id="paint0_radial_4_408"
       cx="0"
       cy="0"
       r="1"
       gradientUnits="userSpaceOnUse"
       gradientTransform="matrix(0,5.8207186,-5.8207186,0,3.1749362,0.26458225)"><stop
         stop-color="#D6B1FF"
         id="stop3331"
         offset="0"
         style="stop-color:#cdf2cd;stop-opacity:1;" /><stop
         offset="1"
         stop-color="#A75DFA"
         id="stop3333"
         style="stop-color:#38d23a;stop-opacity:1;" /></radialGradient><radialGradient
       fx="0"
       fy="0"
       cx="0"
       cy="0"
       r="1"
       gradientUnits="userSpaceOnUse"
       gradientTransform="matrix(0,16.5,-16.5,0,8.999996,0.750012)"
       spreadMethod="pad"
       id="radialGradient3666"><stop
         style="stop-opacity:1;stop-color:#cdf2cd"
         offset="0"
         id="stop3662" /><stop
         style="stop-opacity:1;stop-color:#38d23a"
         offset="1"
         id="stop3664" /></radialGradient><radialGradient
       fx="0"
       fy="0"
       cx="0"
       cy="0"
       r="1"
       gradientUnits="userSpaceOnUse"
       gradientTransform="matrix(0,16.5,-16.5,0,8.999996,0.750012)"
       spreadMethod="pad"
       id="radialGradient3666-6"><stop
         style="stop-color:#ffffff;stop-opacity:1;"
         offset="0"
         id="stop3662-7" /><stop
         style="stop-color:#63c8e3;stop-opacity:1;"
         offset="1"
         id="stop3664-5" /></radialGradient><rect
       x="5.3268056"
       y="2.0367198"
       width="12.69033"
       height="15.980416"
       id="rect6368-6" /><radialGradient
       id="paint0_radial_4_408-2"
       cx="0"
       cy="0"
       r="1"
       gradientUnits="userSpaceOnUse"
       gradientTransform="matrix(0,5.8207186,-5.8207186,0,3.1749362,0.26458225)"><stop
         stop-color="#D6B1FF"
         id="stop3331-7"
         offset="0"
         style="stop-color:#cdf2cd;stop-opacity:1;" /><stop
         offset="1"
         stop-color="#A75DFA"
         id="stop3333-0"
         style="stop-color:#38d23a;stop-opacity:1;" /></radialGradient><radialGradient
       fx="0"
       fy="0"
       cx="0"
       cy="0"
       r="1"
       gradientUnits="userSpaceOnUse"
       gradientTransform="matrix(0,16.5,-16.5,0,8.999996,0.750012)"
       spreadMethod="pad"
       id="radialGradient3666-9"><stop
         style="stop-opacity:1;stop-color:#cdf2cd"
         offset="0"
         id="stop3662-3" /><stop
         style="stop-opacity:1;stop-color:#38d23a"
         offset="1"
         id="stop3664-6" /></radialGradient><radialGradient
       fx="0"
       fy="0"
       cx="0"
       cy="0"
       r="1"
       gradientUnits="userSpaceOnUse"
       gradientTransform="matrix(0,16.5,-16.5,0,8.999996,0.750012)"
       spreadMethod="pad"
       id="radialGradient3666-6-0"><stop
         style="stop-opacity:1;stop-color:#cdf2cd"
         offset="0"
         id="stop3662-7-6" /><stop
         style="stop-opacity:1;stop-color:#38d23a"
         offset="1"
         id="stop3664-5-2" /></radialGradient></defs><sodipodi:namedview
     id="namedview192"
     pagecolor="#ffffff"
     bordercolor="#000000"
     borderopacity="0.25"
     inkscape:showpageshadow="2"
     inkscape:pageopacity="0.0"
     inkscape:pagecheckerboard="0"
     inkscape:deskcolor="#d1d1d1"
     showgrid="false"
     inkscape:zoom="9.02666"
     inkscape:cx="-10.856729"
     inkscape:cy="18.500752"
     inkscape:window-width="1366"
     inkscape:window-height="686"
     inkscape:window-x="0"
     inkscape:window-y="0"
     inkscape:window-maximized="1"
     inkscape:current-layer="svg190" /><g
     id="g3652"
     transform="matrix(0.35277082,0,0,0.35277082,0.02186344,-0.08061378)"><g
       id="g3654"><g
         id="g3660"><path
           d="m 7.195,0.836 c 0.09,0 0.176,-0.012 0.258,-0.035 1.078,-0.071 2.156,-0.067 3.231,0.008 0.976,0.078 1.921,0.289 2.836,0.636 1.519,0.625 2.558,1.711 3.121,3.254 0.316,0.93 0.507,1.887 0.566,2.867 0.078,1.235 0.051,2.465 -0.086,3.696 -0.105,0.863 -0.328,1.691 -0.672,2.488 -0.637,1.383 -1.672,2.336 -3.101,2.859 C 12.191,17 11,17.207 9.773,17.227 8.398,17.301 7.035,17.195 5.684,16.918 3.203,16.367 1.668,14.852 1.09,12.375 0.844,11.262 0.73,10.133 0.754,8.992 0.727,7.781 0.855,6.582 1.141,5.402 1.75,3.09 3.219,1.656 5.547,1.102 6.09,0.969 6.641,0.879 7.195,0.836 Z"
           style="fill:url(#radialGradient3666-6);fill-rule:evenodd;stroke:none;stroke-width:0.99975004;stroke-dasharray:none"
           id="path3668" /></g></g></g><g
     id="g6800"
     transform="matrix(0.50002167,0,0,0.50002167,-1.0365129,-1.1391005)"><rect
       x="4.4980001"
       y="4.4980001"
       width="7.9369998"
       height="7.9369998"
       rx="1.323"
       ry="1.323"
       fill="#303030"
       style="paint-order:markers stroke fill"
       id="rect6787" /><path
       d="m 9.709,7.773 c 0.299,0.243 0.558,0.383 0.932,0.383 0.299,0 0.62,-0.14 0.62,-0.345 v -0.02 c 0,-0.186 -0.21,-0.322 -0.77,-0.471 C 9.818,7.151 9.384,6.767 9.384,6.334 V 6.315 c 0,-0.617 0.584,-0.955 1.257,-0.955 0.486,0 0.782,0.162 1.136,0.376 l -0.346,0.471 c -0.3,-0.205 -0.51,-0.225 -0.79,-0.225 -0.28,0 -0.622,0.137 -0.622,0.305 v 0.058 c 0,0.224 0.216,0.329 0.777,0.478 0.673,0.187 1.074,0.401 1.074,0.913 v 0.019 c 0,0.578 -0.52,1.022 -1.23,1.022 C 10.136,8.758 9.696,8.567 9.303,8.213 M 8.777,5.36 8.156,7.535 7.535,5.36 H 6.914 L 6.292,7.535 5.672,5.36 H 5.05 l 0.932,3.417 h 0.62 L 7.224,6.603 7.845,8.777 H 8.466 L 9.398,5.36 M 5.05,10.951 h 3.106 v 0.621 H 5.05 Z"
       fill="#f9f9f9"
       id="path6789" /></g></svg>
